Newaita-dark/apps/48/gnome-commander.svg

<svg height="48pt" viewBox="0 0 48 48" width="48pt" xmlns="http://www.w3.org/2000/svg" xmlns:xlink="http://www.w3.org/1999/xlink"><linearGradient id="a" gradientUnits="userSpaceOnUse" x1="23.81478" x2="23.81478" y1="42.0509045" y2="44.03547050005"><stop offset="0" stop-opacity=".27451"/><stop offset="1" stop-opacity="0"/></linearGradient><linearGradient id="b"><stop offset="0" stop-opacity=".313726"/><stop offset=".222222" stop-opacity=".27451"/><stop offset="1" stop-opacity="0"/></linearGradient><radialGradient id="c" cx="450.908936" cy="189.579361" gradientTransform="matrix(.00000026 -.117199 -.210958 -.00000015 79.684395 95.392999)" gradientUnits="userSpaceOnUse" r="21.166656" xlink:href="#b"/><radialGradient id="d" cx="450.908936" cy="189.579361" gradientTransform="matrix(-.00000026 .117199 .210958 .00000015 -31.80678 -11.291218)" gradientUnits="userSpaceOnUse" r="21.166656" xlink:href="#b"/><radialGradient id="e" cx="450.908936" cy="189.579361" gradientTransform="matrix(-.00000026 -.117199 .210958 -.00000015 -31.80678 95.392999)" gradientUnits="userSpaceOnUse" r="21.166656" xlink:href="#b"/><radialGradient id="f" cx="450.908936" cy="189.579361" gradientTransform="matrix(.00000026 .117199 -.210958 .00000015 79.684393 -11.291219)" gradientUnits="userSpaceOnUse" r="21.166656" xlink:href="#b"/><linearGradient id="g" gradientUnits="userSpaceOnUse" x1="23.814786" x2="23.814786" y1="8.3132869999" y2="40.06633549995"><stop offset="0" stop-color="#90a4ae"/><stop offset="1" stop-color="#78909c"/></linearGradient><linearGradient id="h" gradientUnits="userSpaceOnUse" x1="23.814786" x2="23.814786" y1="4.3441560001" y2="42.0508995"><stop offset="0" stop-color="#757575"/><stop offset="1" stop-color="#616161"/></linearGradient><path d="m7.691406 42.050781h32.496094v1.984375h-32.496094zm0 0" fill="url(#a)"/><path d="m40.1875 42.050781h3.96875v-1.984375h-3.96875zm0 0" fill="url(#c)"/><path d="m7.691406 42.050781h-3.96875v1.984375h3.96875zm0 0" fill="url(#d)"/><path d="m7.691406 42.050781h-3.96875v-1.984375h3.96875zm0 0" fill="url(#e)"/><path d="m40.1875 42.050781h3.96875v1.984375h-3.96875zm0 0" fill="url(#f)"/><path d="m4.960938 8.3125h37.707031v31.753906h-37.707031zm0 0" fill="url(#g)"/><path d="m5.457031 4.34375c-.824219 0-1.488281.664062-1.488281 1.488281v34.730469c0 .824219.664062 1.488281 1.488281 1.488281h36.714844c.824219 0 1.488281-.664062 1.488281-1.488281v-34.730469c0-.824219-.664062-1.488281-1.488281-1.488281zm.496094 5.953125h16.871094v29.769531h-15.878907c-.550781 0-.992187-.441406-.992187-.992187zm18.855469 0h16.867187v28.777344c0 .550781-.441406.992187-.992187.992187h-15.875zm0 0" fill="url(#h)"/><path d="m5.457031 4.34375c-.824219 0-1.488281.664062-1.488281 1.488281v.496094c0-.824219.664062-1.488281 1.488281-1.488281h36.714844c.824219 0 1.488281.664062 1.488281 1.488281v-.496094c0-.824219-.664062-1.488281-1.488281-1.488281zm.496094 34.730469v.496093c0 .550782.441406.992188.992187.992188h15.878907v-.496094h-15.878907c-.550781 0-.992187-.441406-.992187-.992187zm35.722656 0c0 .550781-.441406.992187-.992187.992187h-15.875v.496094h15.875c.550781 0 .992187-.441406.992187-.992188zm0 0" fill="#fff" fill-opacity=".392157"/><path d="m5.953125 9.777344v.519531h16.871094v-.519531zm18.855469 0v.519531h16.867187v-.519531zm-20.839844 30.265625v.519531c0 .824219.664062 1.488281 1.488281 1.488281h36.714844c.824219 0 1.488281-.664062 1.488281-1.488281v-.519531c0 .824219-.664062 1.488281-1.488281 1.488281h-36.714844c-.824219 0-1.488281-.664062-1.488281-1.488281zm0 0" fill-opacity=".235294"/><path d="m219.979005 175.101398c-33.225176 0-59.994274 26.769099-59.994274 59.994274v1400.023858c0 33.225176 26.769098 59.994274 59.994274 59.994274h1480.016223c33.225176 0 59.994274-26.769098 59.994274-59.994274v-1400.023858c0-33.225175-26.769098-59.994274-59.994274-59.994274zm19.998091 239.977096h680.09257v1200.042945h-640.096387c-22.202606 0-39.996183-17.793577-39.996183-39.996183zm760.084936 0h679.935105v1160.046762c0 22.202606-17.793577 39.996183-39.996183 39.996183h-639.938922zm0 0" fill="none" stroke="#212121" stroke-linecap="round" stroke-width="11.338583" transform="scale(.0248071)"/><g fill="#fff" fill-opacity=".784314"><path d="m8.929688 13.273438h10.914062c.550781 0 .996094.445312.996094.992187 0 .550781-.445313.992187-.996094.992187h-10.914062c-.546876 0-.992188-.441406-.992188-.992187 0-.546875.445312-.992187.992188-.992187zm0 0"/><path d="m8.929688 18.234375h10.914062c.550781 0 .996094.445313.996094.992187 0 .550782-.445313.992188-.996094.992188h-10.914062c-.546876 0-.992188-.441406-.992188-.992188 0-.546874.445312-.992187.992188-.992187zm0 0"/><path d="m8.929688 23.199219h10.914062c.550781 0 .996094.441406.996094.992187 0 .546875-.445313.992188-.996094.992188h-10.914062c-.546876 0-.992188-.445313-.992188-.992188 0-.550781.445312-.992187.992188-.992187zm0 0"/><path d="m27.785156 13.273438h10.914063c.546875 0 .992187.445312.992187.992187 0 .550781-.445312.992187-.992187.992187h-10.914063c-.550781 0-.992187-.441406-.992187-.992187 0-.546875.441406-.992187.992187-.992187zm0 0"/><path d="m27.785156 18.234375h10.914063c.546875 0 .992187.445313.992187.992187 0 .550782-.445312.992188-.992187.992188h-10.914063c-.550781 0-.992187-.441406-.992187-.992188 0-.546874.441406-.992187.992187-.992187zm0 0"/><path d="m27.785156 23.199219h10.914063c.546875 0 .992187.441406.992187.992187 0 .546875-.445312.992188-.992187.992188h-10.914063c-.550781 0-.992187-.445313-.992187-.992188 0-.550781.441406-.992187.992187-.992187zm0 0"/></g></svg>

<?xml version="1.0" encoding="UTF-8"?>
<svg xmlns="http://www.w3.org/2000/svg" xmlns:xlink="http://www.w3.org/1999/xlink" width="48pt" height="48pt" viewBox="0 0 48 48" version="1.1">
<defs>
<linearGradient id="linear0" gradientUnits="userSpaceOnUse" x1="254" y1="233.5" x2="254" y2="254.666672" gradientTransform="matrix(0.093759,0,0,0.093759,-0.00000572259,20.158178)">
<stop offset="0" style="stop-color:rgb(0%,0%,0%);stop-opacity:0.27451;"/>
<stop offset="1" style="stop-color:rgb(0%,0%,0%);stop-opacity:0;"/>
</linearGradient>
<radialGradient id="radial0" gradientUnits="userSpaceOnUse" cx="450.908936" cy="189.579361" fx="450.908936" fy="189.579361" r="21.166656" gradientTransform="matrix(0.000000261256,-0.117199,-0.210958,-0.000000152308,79.684395,95.392999)">
<stop offset="0" style="stop-color:rgb(0%,0%,0%);stop-opacity:0.313726;"/>
<stop offset="0.222222" style="stop-color:rgb(0%,0%,0%);stop-opacity:0.27451;"/>
<stop offset="1" style="stop-color:rgb(0%,0%,0%);stop-opacity:0;"/>
</radialGradient>
<radialGradient id="radial1" gradientUnits="userSpaceOnUse" cx="450.908936" cy="189.579361" fx="450.908936" fy="189.579361" r="21.166656" gradientTransform="matrix(-0.000000261256,0.117199,0.210958,0.000000152308,-31.80678,-11.291218)">
<stop offset="0" style="stop-color:rgb(0%,0%,0%);stop-opacity:0.313726;"/>
<stop offset="0.222222" style="stop-color:rgb(0%,0%,0%);stop-opacity:0.27451;"/>
<stop offset="1" style="stop-color:rgb(0%,0%,0%);stop-opacity:0;"/>
</radialGradient>
<radialGradient id="radial2" gradientUnits="userSpaceOnUse" cx="450.908936" cy="189.579361" fx="450.908936" fy="189.579361" r="21.166656" gradientTransform="matrix(-0.000000261256,-0.117199,0.210958,-0.000000152308,-31.80678,95.392999)">
<stop offset="0" style="stop-color:rgb(0%,0%,0%);stop-opacity:0.313726;"/>
<stop offset="0.222222" style="stop-color:rgb(0%,0%,0%);stop-opacity:0.27451;"/>
<stop offset="1" style="stop-color:rgb(0%,0%,0%);stop-opacity:0;"/>
</radialGradient>
<radialGradient id="radial3" gradientUnits="userSpaceOnUse" cx="450.908936" cy="189.579361" fx="450.908936" fy="189.579361" r="21.166656" gradientTransform="matrix(0.000000261256,0.117199,-0.210958,0.000000152308,79.684393,-11.291219)">
<stop offset="0" style="stop-color:rgb(0%,0%,0%);stop-opacity:0.313726;"/>
<stop offset="0.222222" style="stop-color:rgb(0%,0%,0%);stop-opacity:0.27451;"/>
<stop offset="1" style="stop-color:rgb(0%,0%,0%);stop-opacity:0;"/>
</radialGradient>
<linearGradient id="linear1" gradientUnits="userSpaceOnUse" x1="254" y1="-126.333344" x2="254" y2="212.333328" gradientTransform="matrix(0.093759,0,0,0.093759,0,20.158175)">
<stop offset="0" style="stop-color:rgb(56.470591%,64.313728%,68.235296%);stop-opacity:1;"/>
<stop offset="1" style="stop-color:rgb(47.058824%,56.470591%,61.176473%);stop-opacity:1;"/>
</linearGradient>
<linearGradient id="linear2" gradientUnits="userSpaceOnUse" x1="254" y1="-168.666656" x2="254" y2="233.5" gradientTransform="matrix(0.093759,0,0,0.093759,0,20.158173)">
<stop offset="0" style="stop-color:rgb(45.882353%,45.882353%,45.882353%);stop-opacity:1;"/>
<stop offset="1" style="stop-color:rgb(38.039216%,38.039216%,38.039216%);stop-opacity:1;"/>
</linearGradient>
</defs>
<g id="surface1">
<path style=" stroke:none;fill-rule:nonzero;fill:url(#linear0);" d="M 7.691406 42.050781 L 40.1875 42.050781 L 40.1875 44.035156 L 7.691406 44.035156 Z M 7.691406 42.050781 "/>
<path style=" stroke:none;fill-rule:nonzero;fill:url(#radial0);" d="M 40.1875 42.050781 L 44.15625 42.050781 L 44.15625 40.066406 L 40.1875 40.066406 Z M 40.1875 42.050781 "/>
<path style=" stroke:none;fill-rule:nonzero;fill:url(#radial1);" d="M 7.691406 42.050781 L 3.722656 42.050781 L 3.722656 44.035156 L 7.691406 44.035156 Z M 7.691406 42.050781 "/>
<path style=" stroke:none;fill-rule:nonzero;fill:url(#radial2);" d="M 7.691406 42.050781 L 3.722656 42.050781 L 3.722656 40.066406 L 7.691406 40.066406 Z M 7.691406 42.050781 "/>
<path style=" stroke:none;fill-rule:nonzero;fill:url(#radial3);" d="M 40.1875 42.050781 L 44.15625 42.050781 L 44.15625 44.035156 L 40.1875 44.035156 Z M 40.1875 42.050781 "/>
<path style=" stroke:none;fill-rule:nonzero;fill:url(#linear1);" d="M 4.960938 8.3125 L 42.667969 8.3125 L 42.667969 40.066406 L 4.960938 40.066406 Z M 4.960938 8.3125 "/>
<path style=" stroke:none;fill-rule:nonzero;fill:url(#linear2);" d="M 5.457031 4.34375 C 4.632812 4.34375 3.96875 5.007812 3.96875 5.832031 L 3.96875 40.5625 C 3.96875 41.386719 4.632812 42.050781 5.457031 42.050781 L 42.171875 42.050781 C 42.996094 42.050781 43.660156 41.386719 43.660156 40.5625 L 43.660156 5.832031 C 43.660156 5.007812 42.996094 4.34375 42.171875 4.34375 Z M 5.953125 10.296875 L 22.824219 10.296875 L 22.824219 40.066406 L 6.945312 40.066406 C 6.394531 40.066406 5.953125 39.625 5.953125 39.074219 Z M 24.808594 10.296875 L 41.675781 10.296875 L 41.675781 39.074219 C 41.675781 39.625 41.234375 40.066406 40.683594 40.066406 L 24.808594 40.066406 Z M 24.808594 10.296875 "/>
<path style=" stroke:none;fill-rule:nonzero;fill:rgb(100%,100%,100%);fill-opacity:0.392157;" d="M 5.457031 4.34375 C 4.632812 4.34375 3.96875 5.007812 3.96875 5.832031 L 3.96875 6.328125 C 3.96875 5.503906 4.632812 4.839844 5.457031 4.839844 L 42.171875 4.839844 C 42.996094 4.839844 43.660156 5.503906 43.660156 6.328125 L 43.660156 5.832031 C 43.660156 5.007812 42.996094 4.34375 42.171875 4.34375 Z M 5.953125 39.074219 L 5.953125 39.570312 C 5.953125 40.121094 6.394531 40.5625 6.945312 40.5625 L 22.824219 40.5625 L 22.824219 40.066406 L 6.945312 40.066406 C 6.394531 40.066406 5.953125 39.625 5.953125 39.074219 Z M 41.675781 39.074219 C 41.675781 39.625 41.234375 40.066406 40.683594 40.066406 L 24.808594 40.066406 L 24.808594 40.5625 L 40.683594 40.5625 C 41.234375 40.5625 41.675781 40.121094 41.675781 39.570312 Z M 41.675781 39.074219 "/>
<path style=" stroke:none;fill-rule:nonzero;fill:rgb(0%,0%,0%);fill-opacity:0.235294;" d="M 5.953125 9.777344 L 5.953125 10.296875 L 22.824219 10.296875 L 22.824219 9.777344 Z M 24.808594 9.777344 L 24.808594 10.296875 L 41.675781 10.296875 L 41.675781 9.777344 Z M 3.96875 40.042969 L 3.96875 40.5625 C 3.96875 41.386719 4.632812 42.050781 5.457031 42.050781 L 42.171875 42.050781 C 42.996094 42.050781 43.660156 41.386719 43.660156 40.5625 L 43.660156 40.042969 C 43.660156 40.867188 42.996094 41.53125 42.171875 41.53125 L 5.457031 41.53125 C 4.632812 41.53125 3.96875 40.867188 3.96875 40.042969 Z M 3.96875 40.042969 "/>
<path style="fill:none;stroke-width:11.338583;stroke-linecap:round;stroke-linejoin:miter;stroke:rgb(12.941177%,12.941177%,12.941177%);stroke-opacity:1;stroke-miterlimit:4;" d="M 219.979005 175.101398 C 186.753829 175.101398 159.984731 201.870497 159.984731 235.095672 L 159.984731 1635.11953 C 159.984731 1668.344706 186.753829 1695.113804 219.979005 1695.113804 L 1699.995228 1695.113804 C 1733.220404 1695.113804 1759.989502 1668.344706 1759.989502 1635.11953 L 1759.989502 235.095672 C 1759.989502 201.870497 1733.220404 175.101398 1699.995228 175.101398 Z M 239.977096 415.078494 L 920.069666 415.078494 L 920.069666 1615.121439 L 279.973279 1615.121439 C 257.770673 1615.121439 239.977096 1597.327862 239.977096 1575.125256 Z M 1000.062032 415.078494 L 1679.997137 415.078494 L 1679.997137 1575.125256 C 1679.997137 1597.327862 1662.20356 1615.121439 1640.000954 1615.121439 L 1000.062032 1615.121439 Z M 1000.062032 415.078494 " transform="matrix(0.0248071,0,0,0.0248071,0,0)"/>
<path style=" stroke:none;fill-rule:nonzero;fill:rgb(100%,100%,100%);fill-opacity:0.784314;" d="M 8.929688 13.273438 L 19.84375 13.273438 C 20.394531 13.273438 20.839844 13.71875 20.839844 14.265625 C 20.839844 14.816406 20.394531 15.257812 19.84375 15.257812 L 8.929688 15.257812 C 8.382812 15.257812 7.9375 14.816406 7.9375 14.265625 C 7.9375 13.71875 8.382812 13.273438 8.929688 13.273438 Z M 8.929688 13.273438 "/>
<path style=" stroke:none;fill-rule:nonzero;fill:rgb(100%,100%,100%);fill-opacity:0.784314;" d="M 8.929688 18.234375 L 19.84375 18.234375 C 20.394531 18.234375 20.839844 18.679688 20.839844 19.226562 C 20.839844 19.777344 20.394531 20.21875 19.84375 20.21875 L 8.929688 20.21875 C 8.382812 20.21875 7.9375 19.777344 7.9375 19.226562 C 7.9375 18.679688 8.382812 18.234375 8.929688 18.234375 Z M 8.929688 18.234375 "/>
<path style=" stroke:none;fill-rule:nonzero;fill:rgb(100%,100%,100%);fill-opacity:0.784314;" d="M 8.929688 23.199219 L 19.84375 23.199219 C 20.394531 23.199219 20.839844 23.640625 20.839844 24.191406 C 20.839844 24.738281 20.394531 25.183594 19.84375 25.183594 L 8.929688 25.183594 C 8.382812 25.183594 7.9375 24.738281 7.9375 24.191406 C 7.9375 23.640625 8.382812 23.199219 8.929688 23.199219 Z M 8.929688 23.199219 "/>
<path style=" stroke:none;fill-rule:nonzero;fill:rgb(100%,100%,100%);fill-opacity:0.784314;" d="M 27.785156 13.273438 L 38.699219 13.273438 C 39.246094 13.273438 39.691406 13.71875 39.691406 14.265625 C 39.691406 14.816406 39.246094 15.257812 38.699219 15.257812 L 27.785156 15.257812 C 27.234375 15.257812 26.792969 14.816406 26.792969 14.265625 C 26.792969 13.71875 27.234375 13.273438 27.785156 13.273438 Z M 27.785156 13.273438 "/>
<path style=" stroke:none;fill-rule:nonzero;fill:rgb(100%,100%,100%);fill-opacity:0.784314;" d="M 27.785156 18.234375 L 38.699219 18.234375 C 39.246094 18.234375 39.691406 18.679688 39.691406 19.226562 C 39.691406 19.777344 39.246094 20.21875 38.699219 20.21875 L 27.785156 20.21875 C 27.234375 20.21875 26.792969 19.777344 26.792969 19.226562 C 26.792969 18.679688 27.234375 18.234375 27.785156 18.234375 Z M 27.785156 18.234375 "/>
<path style=" stroke:none;fill-rule:nonzero;fill:rgb(100%,100%,100%);fill-opacity:0.784314;" d="M 27.785156 23.199219 L 38.699219 23.199219 C 39.246094 23.199219 39.691406 23.640625 39.691406 24.191406 C 39.691406 24.738281 39.246094 25.183594 38.699219 25.183594 L 27.785156 25.183594 C 27.234375 25.183594 26.792969 24.738281 26.792969 24.191406 C 26.792969 23.640625 27.234375 23.199219 27.785156 23.199219 Z M 27.785156 23.199219 "/>
</g>
</svg>
